assets/img/braze_icons/notification-box.svg

<svg fill="none" height="24" viewBox="0 0 24 24" width="24" xmlns="http://www.w3.org/2000/svg"><g fill="#801ed7"><path d="m21.1213 2.87868c1.1716 1.17157 1.1716 3.07107 0 4.24264s-3.071 1.17157-4.2426 0-1.1716-3.07107 0-4.24264 3.071-1.17157 4.2426 0z"/><path d="m22 10.6031c0-.5227 0-.78407-.0785-.90709-.0807-.12659-.1542-.17952-.2999-.21605-.1415-.03549-.4391.06386-1.0343.26255-1.7405.58109-3.7371.17872-5.1228-1.20698-1.3857-1.38569-1.7881-3.38237-1.207-5.12286.1987-.59516.298-.89275.2625-1.03428-.0365-.14566-.0894-.21914-.216-.29991-.123-.07848-.3844-.07848-.9071-.07848h-7.23544c-.52713-.00002-.98192-.00003-1.35649.03057-.39534.0323-.78856.10362-1.16694.29641-.56449.28762-1.02343.74656-1.31105 1.31105-.19279.37838-.26411.7716-.29641 1.16694-.0306.37457-.03059.82932-.03057 1.35645v11.67708c-.00002.5272-.00003.982.03057 1.3565.0323.3954.10362.7886.29641 1.167.28762.5645.74656 1.0234 1.31105 1.311.37838.1928.7716.2641 1.16694.2964.37457.0306.82933.0306 1.35647.0306h11.67716c.5271 0 .9819 0 1.3564-.0306.3954-.0323.7886-.1036 1.167-.2964.5645-.2876 1.0234-.7465 1.311-1.311.1928-.3784.2641-.7716.2964-1.167.0306-.3745.0306-.8293.0306-1.3564z"/></g></svg>

<svg width="24" height="24" viewBox="0 0 24 24" fill="none" xmlns="http://www.w3.org/2000/svg">
<path d="M21.1213 2.87868C22.2929 4.05025 22.2929 5.94975 21.1213 7.12132C19.9497 8.29289 18.0503 8.29289 16.8787 7.12132C15.7071 5.94975 15.7071 4.05025 16.8787 2.87868C18.0503 1.70711 19.9497 1.70711 21.1213 2.87868Z" fill="#801ED7"/>
<path d="M22 10.6031C22 10.0804 22 9.81903 21.9215 9.69601C21.8408 9.56942 21.7673 9.51649 21.6216 9.47996C21.4801 9.44447 21.1825 9.54382 20.5873 9.74251C18.8468 10.3236 16.8502 9.92123 15.4645 8.53553C14.0788 7.14984 13.6764 5.15316 14.2575 3.41267C14.4562 2.81751 14.5555 2.51992 14.52 2.37839C14.4835 2.23273 14.4306 2.15925 14.304 2.07848C14.181 2 13.9196 2 13.3969 2H6.16146C5.63433 1.99998 5.17954 1.99997 4.80497 2.03057C4.40963 2.06287 4.01641 2.13419 3.63803 2.32698C3.07354 2.6146 2.6146 3.07354 2.32698 3.63803C2.13419 4.01641 2.06287 4.40963 2.03057 4.80497C1.99997 5.17954 1.99998 5.63429 2 6.16142V17.8385C1.99998 18.3657 1.99997 18.8205 2.03057 19.195C2.06287 19.5904 2.13419 19.9836 2.32698 20.362C2.6146 20.9265 3.07354 21.3854 3.63803 21.673C4.01641 21.8658 4.40963 21.9371 4.80497 21.9694C5.17954 22 5.6343 22 6.16144 22H17.8386C18.3657 22 18.8205 22 19.195 21.9694C19.5904 21.9371 19.9836 21.8658 20.362 21.673C20.9265 21.3854 21.3854 20.9265 21.673 20.362C21.8658 19.9836 21.9371 19.5904 21.9694 19.195C22 18.8205 22 18.3657 22 17.8386V10.6031Z" fill="#801ED7"/>
</svg>
